**kern	**kern	**dynam
*part1	*part1	*part1
*staff2	*staff1	*
*I"Piano	*	*
*clefF4	*clefG2	*
*k[b-e-a-d-]	*k[b-e-a-d-]	*
=1	=1	=1
*	*^	*
4EEE- 4EE-	4ryy	12r	.
.	.	(12e-L	>
.	.	12a-J	.
2E- 2B-	4ee-	12ee-L	.
.	.	12d-	.
.	.	12e-J	.
.	4g	12gL	.
.	.	12d-	.
.	.	12e-J)	.
*	*v	*v	*
=	=	=
!	!LO:TX:b:i:t=cresc.	!
(4AAA-	8r	]
.	4A- 4c	.
4AA-	.	.
.	4F 4d-	.
4AAA-	.	.
.	[8E- [8c	.
=	=	=
4AA-	8E-] 8c]	.
.	4A- 4d- 4f	.
4AAA-	.	.
.	4A- 4c 4e-	.
4AA-)	.	.
.	[8d- [8f [8a-	.
=	=	=
4AAA- 4AA-	8d-] 8f] 8a-_	.
.	4c 4e- 4a-]	.
(4F 4A- 4d-	.	.
.	4f 4a- 4dd-	<
4E- 4A- 4c	.	.
.	[8e- [8a- [8cc	.
=	=	=
4A- 4d- 4f	8e-] 8a-] 8cc]	.
.	4a- 4dd- 4ff	.
4A-) 4c 4e-	.	.
.	4a- 4cc 4ee-	.
4F: 4A-: 4d-: 4f:	.	.
.	8a- 8dd- 8ff 8aa-	.
=	=	=
!	!	!LO:DY:a
2.AAA- 2.AA-	(([2.a- 2.dd- 2.ff [2.aa-	] > f
=	=	=
2.AA-: 2.E-: 2.A-: 2.c:	2.a-])) 2.cc 2.ee- 2.aa-]	] mp
==	==	==
*-	*-	*-
!!!system-decoration: {(s1,s2)}
